icons/op-location-24.svg

<svg width="24" height="24" viewBox="0 0 24 24" fill="none" xmlns="http://www.w3.org/2000/svg">
<path d="M12 4C10.0114 4 7 5 7 9C7 11 11.0057 18 12 20C12.9943 18 17 11 17 9C17 5 13.9886 4 12 4ZM12 10.75C11.1193 10.75 10.4091 9.96875 10.4091 9C10.4091 8.03125 11.1193 7.25 12 7.25C12.8807 7.25 13.5909 8.03125 13.5909 9C13.5909 9.96875 12.8807 10.75 12 10.75Z" fill="black"/>
</svg>

<svg xmlns="http://www.w3.org/2000/svg" width="24" height="24" viewBox="0 0 24 24"><path d="M12 4c-1.989 0-5 1-5 5 0 2 4.006 9 5 11 .994-2 5-9 5-11 0-4-3.011-5-5-5Zm0 6.75c-.881 0-1.591-.781-1.591-1.75s.71-1.75 1.591-1.75 1.591.781 1.591 1.75-.71 1.75-1.591 1.75Z"/></svg>
